X:5
T:Angelsea Air
T:Harmony 1
C:Phil Hardy arr. Adam Blaine
L:1/8
R:Slow Air
M:3/4
K:D
Q:"68 bpm"
[| {g}de | {g}f4 {ag}a2 | {ef}e4 de | {ge}f4 {gef}ed | {A}B4 {g}AB | {gc}d4 {g}de | {g}f4 {g}dA | {GdG}B2 d2 d2 | c4 {g}Bc | 
{g}dc {g}d{G}d {g}ed | {B}c6 | {g}e2 d2 {a}gf  | {gf}g6 | {a}f4 {g}d/e/f  | {ag}a4 {g}a2 | {f}g4 ag | f3 A{g}dc |
{g}f6 | {e}f4 {g}fe| {g}dB {G}de {ag}a2 |  {f}g6 | {a}f4 {g}fe | {ag}a6 | {f}g4 d2 | {g}c4 {g}de |
{g}dc {g}d{G}d {g}ed | {B}c4 {g}dc | {g}e2 d2 {a}gf  | {gf}g6 | {a}f4 {g}d/e/f [M: 5/4] [Q:1/4=120] | {ag}a4 {g}a2 f2 {ag}a2 |]

